app/dist/common/images/triton-intl.svg

<svg height="18" width="18" xmlns="http://www.w3.org/2000/svg" xmlns:xlink="http://www.w3.org/1999/xlink"><linearGradient id="a" gradientUnits="userSpaceOnUse" x1="3.349" x2="21.904" y1="3.122" y2="24.434"><stop offset="0" stop-color="#1a1e21"/><stop offset="1" stop-color="#06060a"/></linearGradient><path d="m0 0h18v18h-18z" fill="url(#a)"/><path d="m3 7v3h1v-1.34c0-.901 1.15-1.66 2-1.66.846 0 2 .758 2 1.66v2.808c0 .902-.94 1.536-1.792 1.536h-.208c.024.005-.029 0 0 0v.996h3l.058-.098v-9.747l-.058-.155z" fill="#e8682e"/><path d="m9 4v10h3v-1c.028.005-.034 0 0 0h-.26c-.846 0-1.74-.684-1.74-1.586v-2.738c0-.902.743-1.677 2-1.677 1.256 0 2 .873 2 1.537v1.464h1v-3z" fill="#964a2f"/></svg>

<!-- by TradingView --><svg width="18" height="18" xmlns="http://www.w3.org/2000/svg"><path fill="url(#paint0_linear)" d="M0 0h18v18H0z"/><path d="M3 7v3h1V8.66C4 7.759 5.15 7 6 7c.846 0 2 .758 2 1.66v2.808c0 .902-.94 1.536-1.792 1.536H6c.024.005-.029 0 0 0V14h3l.058-.098V4.155L9 4 3 7z" fill="#E8682E"/><path d="M9 4v10h3v-1c.028.005-.034 0 0 0 .028 0-.034 0 0 0h-.26c-.846 0-1.74-.684-1.74-1.586V8.676c0-.902.743-1.677 2-1.677 1.256 0 2 .873 2 1.537V10h1V7L9 4z" fill="#964A2F"/><defs><linearGradient id="paint0_linear" x1="3.349" y1="3.122" x2="21.904" y2="24.434" gradientUnits="userSpaceOnUse"><stop stop-color="#1A1E21"/><stop offset="1" stop-color="#06060A"/></linearGradient></defs></svg>
